X:1
T:O Canada Waltz
T:O Canada Waltz
T:For Piano Four Hands
T:Calixa Lavallée
T:Arr. by Dekkadeci
C:Calixa Lavallée
Z:Arr. by Dekkadeci
%%score { 1 | 2 } { ( 3 5 ) | ( 4 6 ) }
L:1/8
Q:1/4=196
M:3/4
K:Bb
V:1 treble nm="Piano" snm="Pno."
V:2 treble 
V:3 treble nm="Piano" snm="Pno."
V:5 treble 
V:4 bass 
V:6 bass 
V:1
"^Molto allegro"!f! (bc' d'e' | !trill(!Tf'6-) | f'6- | f'6- | !trill)!f'6 | !trill(!Td'6- | d'6- | %7
 d'6- | !trill)!d'6 | !trill(!Tb6- | b6- | b6- | !trill)!b6 | !trill(!Ta6 | z2!8va(! d'=e' ^f'g' | %15
 !trill(!T^c''4- !trill)!c''=b'/c''/ | .d''2!8va)!!mf! z4 ||[K:G] .B2 d3 d | G4 A2 | (Bc .d2) .e2 | %20
 A6 | .B2 (d^c Bc) | .d2 .d2 .e2 | (fg .a2) .^c2 |!>(! !^!d2 .A2 .B2!>)! |!mp! c>!<(!B A2 Bc | %26
 d>c B2 cd | (ed .c2) .B2!<)! |!mf! !^!A2!>(! .A2 .B2!>)! |!mp! c>!<(!B A2 Bc | d>c B2 B2 | %31
 A2 d2 (d/^c/B/c/ | d6)!<)! |!f! .B2 d3 d | G6 | .c2 e3 e | A6 | .d2 ^d3 d | (ec) .B2 .A2 | %39
 .G2 A3 A | B6 | .d2 g3 g | (ec) .B2 .A2 | d6 | f6 | g6- | g6 | z4{/^a} .b2 | z6 |] %49
V:2
 (Bc de | f4) (3fff | .f2 .g2 .e2 | f6- | f4 e2 | d4 (3ddd | .d2 .e2 .c2 | d6- | d4 c2 | B4 (3BBB | %10
 .B2 .c2 .A2 | B4 (3BBB | .B2 .B2 .B2 | A2 (d=e ^fg) | !trill(!Ta6- | !trill)!a6 | z2 d2 c2 || %17
[K:G] z6 | z6 | z6 | z6 | z6 | z6 | z6 | z6 | z2 [A,D]2 [A,D]2 | z2 [B,D]2 [B,D]2 | z2 .E2 .E2 | %28
 .F2 z4 | z2 [A,D]2 [A,D]2 | z2 [B,D]2 [B,D]2 | z2 [DFA]2 [^CEA]2 | z2 [DFA]2 [CDFA]2 | %33
 z2 [GB]2 [FA]2 | z2 [B,E]2 [B,D]2 | z2 [Ac]2 [Gc]2 | z2 [DF]2 [CE]2 | z2 [FB]2 [FA]2 | %38
 .[^GB]2 z4 | z2 [DF]2 [DF]2 | z2 [DG]2 [DG]2 | z2 [Bd]2 [Bd]2 | z2 .[E^G]2 .[^CE]2 | %43
 z2 [FA]2 [FA]2 | z2 [Ad]2 [Ad]2 | z2 [Bd]2 [Bd]2 | [Bd]2 [Bd]2 [Bd]2 | .[Bd]2 z2{/^A} .B2 | %48
 !^!G2 z4 |] %49
V:3
!f! z4 | [DB]6- | [DB]6- | [DFB]6- | [DFB]6 | [B,G]6- | [B,G]6- | [B,DG]6- | [B,DG]6 | [G,E]6- | %10
 [G,E]6- | [G,E-]6 | E6 | [^F,D]6- | [F,D]6- | [F,D]6- | [F,A,D]2 z4 ||[K:G]!mf! z6 | z6 | z6 | %20
 z6 | z6 | z6 | z6 |!>(! z6!>)! |[K:bass]!mp! F,6 | G,6 | (A,B, .[E,C]2) .[E,^C]2 | %28
!mf! .[F,D]2!>(! z4!>)! |!mp! F,6 | G,6 | (A,B, [D,A,]2) [^C,A,]2 | D,6 |!f! .B,2 D3 D | G,6 | %35
 .C2 E3 E | A,6 | .D2 ^D3 D | ([E,^G,E]C) .B,2 .A,2 | .G,2 A,3 A, | B,6 | .D2 G3 G | %42
 (EC) .[E,^G,B,]2 .[E,A,]2 | D6 | F6 | G4 GG | (GD B,D B,A, | .G,2) z4 | !^!G,2 z4 |] %49
V:4
 z4 | [B,,F,B,]6- | [B,,F,B,]6 | z2!8vb(! !tenuto!.[B,,,B,,]2 !tenuto!.[F,,,F,,]2 | %4
 !tenuto!.[B,,,B,,]2 !tenuto!.[F,,,F,,]2 !tenuto!.[B,,,B,,]2!8vb)! | [G,,D,G,]6- | [G,,D,G,]6 | %7
 z2!8vb(! !tenuto!.[G,,,G,,]2 !tenuto!.[D,,,D,,]2 | %8
 !tenuto!.[G,,,G,,]2 !tenuto!.[D,,,D,,]2 !tenuto!.[G,,,G,,]2!8vb)! | [E,,B,,E,]6- | [E,,-B,,-E,]6 | %11
 E,2 E,2 E,2 | E,2 E,2 E,2 | [D,,A,,D,]6- | [D,,-A,,-D,]6 | D,2 D,2 D,2 | [D,,A,,D,]2 z4 || %17
[K:G] (G,2 [B,D]2) [B,D]2 | (G,2 [B,D]2) [B,D]2 | (G,2 [B,D]2) [CE]2 | (F,2 [A,D]2) [A,D]2 | %21
 (G,2 [B,D]2) [^CE]2 | (F,2 [A,D]2) [A,D]2 | (A,2 [DF]2) [^CE]2 | [F,A,D]2 z4 | F,,6 | G,,6 | %27
 (A,,B,, .C,2) .^C,2 | .D,2 z4 | F,,6 | G,,6 | (A,,B,, A,,2) A,,2 | z2 A,,2 C,2 | G,,4 F,,2 | %34
 E,,6 | A,,4 G,,2 | F,,6 | B,,4 A,,2 | .^G,,2 z4 | G,,4 F,,2 | G,,6 | z2 D,2 D,2 | C,4 ^C,2 | D,6 | %44
 D,6 | z2 [B,,D,G,]2 [B,,D,G,]2 | [B,,D,G,]2 [B,,D,G,]2 [B,,D,G,]2 | .[G,,B,,D,]2 z4 | %48
 !^!G,,2 z4 |] %49
V:5
 x4 | F2 F2 F2 | F2 F2 F2 | x6 | x6 | D2 D2 D2 | D2 D2 D2 | x6 | x6 | B,2 B,2 B,2 | B,2 B,2 B,2 | %11
 B,2 B,2 B,2 | [G,B,]2 [G,B,]2 [G,B,]2 | A,2 A,2 A,2 | A,2 A,2 A,2 | A,2 A,2 A,2 | x6 ||[K:G] x6 | %18
 x6 | x6 | x6 | x6 | x6 | x6 | x6 |[K:bass] z2!<(! D,2 D,2 | z2 D,2 D,2 | x6!<)! | x6 | %29
 z2!<(! D,2 D,2 | z2 D,2 D,2 | x6 | x6!<)! | z2 [D,G,]2 [D,F,]2 | z2 [G,,E,]2 [G,,E,]2 | %35
 z2 [E,A,]2 [E,G,]2 | z2 [A,,D,]2 [A,,D,]2 | z2 [^D,B,]2 [D,F,]2 | x6 | z2 [A,,D,F,]2 [A,,D,F,]2 | %40
 z2 [B,,D,G,]2 [B,,D,G,]2 | z2 [G,B,D]2 [G,B,D]2 | x6 | z2 [F,A,]2 [F,A,]2 | %44
 z2 [F,A,D]2 [F,A,CD]2 | x6 | x6 | x6 | x6 |] %49
V:6
 x4 | x6 | x6 | x2!8vb(! x4 | x6!8vb)! | x6 | x6 | x2!8vb(! x4 | x6!8vb)! | x6 | x6 | [E,,B,,]6- | %12
 [E,,B,,]6 | x6 | x6 | [D,,A,,-]6 | x6 ||[K:G] x6 | x6 | x6 | x6 | x6 | x6 | x6 | x6 | x6 | x6 | %27
 x6 | x6 | x6 | x6 | x6 | D,,6 | x6 | x6 | x6 | x6 | x6 | x6 | x6 | x6 | G,,4 B,,2 | x6 | x6 | x6 | %45
 G,,6- | G,,6- | x6 | x6 |] %49

